icons/svg/comment-text-outline.svg

﻿<?xml version="1.0" encoding="utf-8"?>
<!DOCTYPE svg PUBLIC "-//W3C//DTD SVG 1.1//EN" "http://www.w3.org/Graphics/SVG/1.1/DTD/svg11.dtd">
<svg xmlns="http://www.w3.org/2000/svg" xmlns:xlink="http://www.w3.org/1999/xlink" version="1.1" baseProfile="full" width="24" height="24" viewBox="0 0 24.00 24.00" enable-background="new 0 0 24.00 24.00" xml:space="preserve">
	<path fill="#000000" fill-opacity="1" stroke-width="0.2" stroke-linejoin="round" d="M 9,22C 8.44772,22 8,21.5523 8,21L 7.99999,18L 4,18C 2.89543,18 2,17.1046 2,16L 2.0094,3.99808C 2.0094,2.89308 2.89538,1.99809 3.99939,1.99809L 19.9994,1.99809C 21.1034,1.99809 21.9994,2.89308 21.9994,3.99808L 21.9994,15.9981C 21.9994,17.1021 21.1034,17.9981 19.9994,17.9981L 13.904,17.9997L 10.1979,21.7058C 10.0053,21.8984 9.75368,21.996 9.50124,21.9986L 9.5,22L 9,22 Z M 9.99999,16L 9.99999,19.0753L 13.0753,16L 20,16L 20,4.00003L 3.99999,4.00003L 3.99999,16L 9.99999,16 Z M 6,7L 18,7L 18,9L 6,9L 6,7 Z M 6,11L 15,11L 15,13L 6,13L 6,11 Z "/>
</svg>

<svg xmlns="http://www.w3.org/2000/svg" version="1.1" baseProfile="full" width="24" height="24" viewBox="0 0 24.00 24.00" xml:space="preserve"><path fill="#000" fill-opacity="1" stroke-width=".2" stroke-linejoin="round" d="M9 22c-.552 0-1-.448-1-1v-3H4c-1.105 0-2-.895-2-2l.01-12.002c0-1.105.885-2 1.99-2h16c1.103 0 2 .895 2 2v12c0 1.104-.897 2-2 2L13.903 18l-3.706 3.706c-.193.192-.444.29-.697.293H9zm1-6v3.075L13.075 16H20V4H4v12h6zM6 7h12v2H6V7zm0 4h9v2H6v-2z"/></svg>
